X:1
P: Oberek - Wlesu (Polish Dance)
C:Kammen Collection, Vol. 1
C:Arr. T. Traub, 22-Apr-03
Z:Kammen Collection, Vol. 1
Z:Poland
R:Waltz
M:3/8
K: Dm
L: 1/16
A2|: "Dm"d>e f2f2|"A"e4 ^c-A|"Dm"defefa|"A"e4 ^c-A|"Dm"d.d-.d|"A"^c4 B-A|"Gm"G2A2 =cB|1 "A"A4 "fine"A2 :|2 "A"A4 c2||
|: "F"f>g a2 a2|"C"g4 ec|"F"fg a2c'2|"C"g4 g|"Gm" bagfed|"A"^c4 BA|"Gm"G2 ABGB|"A"A4 A2|"Dm"d2d2d2|"A"ed ^c2 B-A|"Gm"G2A2B2|1 "A"A4 "C"=c2 :|2 "A"A4 A2||
"Dm"d>e f2f2|"A"e4 ^c-A|"Dm"defefa|"A"e4 "[8va]"A2|"Dm"d2d2d2|"A"^c4 B-A|"Gm"G2A2B2|"A"A2 "D.C." [^c2a2] |]
